; G-Code generated by Simplify3D(R) Version 4.1.2
; Apr 7, 2021 at 8:08:50 PM
; Settings Summary
;   processName,Process1
;   applyToModels,full,half
;   profileName,Progressive Hydraulics - Compact Track Loader -- Case (modified)
;   profileVersion,2021-02-18 09:33:57
;   baseProfile,Default(3)
;   printMaterial,
;   printQuality,
;   printExtruders,
;   extruderName,Primary Extruder
;   extruderToolheadNumber,0
;   extruderDiameter,0.4
;   extruderAutoWidth,0
;   extruderWidth,0.4
;   extrusionMultiplier,1
;   extruderUseRetract,1
;   extruderRetractionDistance,10
;   extruderExtraRestartDistance,0
;   extruderRetractionZLift,0.3
;   extruderRetractionSpeed,6000
;   extruderUseCoasting,0
;   extruderCoastingDistance,2
;   extruderUseWipe,0
;   extruderWipeDistance,5
;   primaryExtruder,0
;   layerHeight,0.2
;   topSolidLayers,1
;   bottomSolidLayers,1
;   perimeterOutlines,2
;   printPerimetersInsideOut,1
;   startPointOption,2
;   startPointOriginX,100
;   startPointOriginY,150
;   sequentialIslands,1
;   spiralVaseMode,0
;   firstLayerHeightPercentage,120
;   firstLayerWidthPercentage,150
;   firstLayerUnderspeed,0.5
;   useRaft,1
;   raftExtruder,0
;   raftTopLayers,1
;   raftBaseLayers,2
;   raftOffset,5
;   raftSeparationDistance,0.27
;   raftTopInfill,100
;   aboveRaftSpeedMultiplier,0.3
;   useSkirt,0
;   skirtExtruder,0
;   skirtLayers,1
;   skirtOutlines,3
;   skirtOffset,5.2
;   usePrimePillar,0
;   primePillarExtruder,999
;   primePillarWidth,20
;   primePillarLocation,7
;   primePillarSpeedMultiplier,1
;   useOozeShield,0
;   oozeShieldExtruder,999
;   oozeShieldOffset,2
;   oozeShieldOutlines,1
;   oozeShieldSidewallShape,1
;   oozeShieldSidewallAngle,30
;   oozeShieldSpeedMultiplier,1
;   infillExtruder,0
;   internalInfillPattern,Grid
;   externalInfillPattern,Rectilinear
;   infillPercentage,23
;   outlineOverlapPercentage,30
;   infillExtrusionWidthPercentage,100
;   minInfillLength,5
;   infillLayerInterval,1
;   internalInfillAngles,45,-45
;   overlapInternalInfillAngles,1
;   externalInfillAngles,45,-45
;   generateSupport,0
;   supportExtruder,0
;   supportInfillPercentage,40
;   supportExtraInflation,0
;   supportBaseLayers,0
;   denseSupportExtruder,0
;   denseSupportLayers,0
;   denseSupportInfillPercentage,70
;   supportLayerInterval,1
;   supportHorizontalPartOffset,0.3
;   supportUpperSeparationLayers,1
;   supportLowerSeparationLayers,1
;   supportType,0
;   supportGridSpacing,4
;   maxOverhangAngle,45
;   supportAngles,45,-45
;   temperatureName,Primary Extruder,bed
;   temperatureNumber,0,0
;   temperatureSetpointCount,1,2
;   temperatureSetpointLayers,1,1,5
;   temperatureSetpointTemperatures,210,60,45
;   temperatureStabilizeAtStartup,1,1
;   temperatureHeatedBed,0,1
;   fanLayers,1,2
;   fanSpeeds,0,100
;   blipFanToFullPower,0
;   adjustSpeedForCooling,0
;   minSpeedLayerTime,15
;   minCoolingSpeedSlowdown,20
;   increaseFanForCooling,0
;   minFanLayerTime,45
;   maxCoolingFanSpeed,100
;   increaseFanForBridging,0
;   bridgingFanSpeed,100
;   use5D,1
;   relativeEdistances,0
;   allowEaxisZeroing,1
;   independentExtruderAxes,0
;   includeM10123,0
;   stickySupport,1
;   applyToolheadOffsets,0
;   gcodeXoffset,0
;   gcodeYoffset,0
;   gcodeZoffset,0
;   overrideMachineDefinition,1
;   machineTypeOverride,0
;   strokeXoverride,220
;   strokeYoverride,220
;   strokeZoverride,250
;   originOffsetXoverride,0
;   originOffsetYoverride,0
;   originOffsetZoverride,0
;   homeXdirOverride,-1
;   homeYdirOverride,-1
;   homeZdirOverride,-1
;   flipXoverride,1
;   flipYoverride,-1
;   flipZoverride,1
;   toolheadOffsets,0,0|0,0|0,0|0,0|0,0|0,0
;   overrideFirmwareConfiguration,0
;   firmwareTypeOverride,RepRap (Marlin/Repetier/Sprinter)
;   GPXconfigOverride,r2
;   baudRateOverride,115200
;   overridePrinterModels,0
;   printerModelsOverride
;   startingGcode,G28 ; home all axes,M92 E101.5,G29; BLTOUCH mesh generation,G92 E0.0,G1 Z5;,G1 X10 Y10 Z0 F6000;,G1 X60.0 E9.0  F1000.0 ; intro line,G1 X100.0 E12.5  F1000.0 ; intro line,G1 X5 Y10 Z0.2 F3000 ; get ready to prime,G92 E0 ; reset extrusion distance,G1 X160 E15 F600 ; prime nozzle,G1 X180 F5000 ; quick wipe
;   layerChangeGcode,
;   retractionGcode,
;   toolChangeGcode,
;   endingGcode,M104 S0 ; turn off extruder,M140 S0 ; turn off bed,M84 ; disable motors,G28 X0 Y0
;   exportFileFormat,gcode
;   celebration,0
;   celebrationSong,Random Song
;   postProcessing,
;   defaultSpeed,2600
;   outlineUnderspeed,0.5
;   solidInfillUnderspeed,0.8
;   supportUnderspeed,0.8
;   rapidXYspeed,4800
;   rapidZspeed,1000
;   minBridgingArea,50
;   bridgingExtraInflation,0
;   bridgingExtrusionMultiplier,1
;   bridgingSpeedMultiplier,1
;   useFixedBridgingAngle,0
;   fixedBridgingAngle,0
;   applyBridgingToPerimeters,0
;   filamentDiameters,1.75|1.75|1.75|1.75|1.75|1.75
;   filamentPricesPerKg,46|46|46|46|46|46
;   filamentDensities,1.25|1.25|1.25|1.25|1.25|1.25
;   useMinPrintHeight,0
;   minPrintHeight,0
;   useMaxPrintHeight,0
;   maxPrintHeight,0
;   useDiaphragm,0
;   diaphragmLayerInterval,20
;   robustSlicing,1
;   mergeAllIntoSolid,0
;   onlyRetractWhenCrossingOutline,1
;   retractBetweenLayers,1
;   useRetractionMinTravel,0
;   retractionMinTravel,3
;   retractWhileWiping,0
;   onlyWipeOutlines,1
;   avoidCrossingOutline,1
;   maxMovementDetourFactor,3
;   toolChangeRetractionDistance,12
;   toolChangeExtraRestartDistance,-0.5
;   toolChangeRetractionSpeed,600
;   externalThinWallType,1
;   internalThinWallType,2
;   thinWallAllowedOverlapPercentage,25
;   singleExtrusionMinLength,1
;   singleExtrusionMinPrintingWidthPercentage,50
;   singleExtrusionMaxPrintingWidthPercentage,200
;   singleExtrusionEndpointExtension,0.2
;   horizontalSizeCompensation,0
G90
M82
M106 S0
M140 S60
M190 S60
M104 S210 T0
M109 S210 T0
G28 ; home all axes
M92 E101.5
G29; BLTOUCH mesh generation
G92 E0.0
G1 Z5;
G1 X10 Y10 Z0 F6000;
G1 X60.0 E9.0  F1000.0 ; intro line
G1 X100.0 E12.5  F1000.0 ; intro line
G1 X5 Y10 Z0.2 F3000 ; get ready to prime
G92 E0 ; reset extrusion distance
G1 X160 E15 F600 ; prime nozzle
G1 X180 F5000 ; quick wipe
; process Process1
; layer 1, Z = 0.600
T0
G92 E0.0000
G1 E-10.0000 F6000
; feature raft
; tool H0.600 W0.800
G1 Z0.600 F1000
G1 X74.237 Y117.060 F4800
G1 E0.0000 F6000
G92 E0.0000
G1 X81.682 Y113.184 E1.6751 F325
G1 X84.016 Y113.224 E2.1407
G1 X89.387 Y116.254 E3.3715
G1 X93.727 Y118.145 E4.3163
G1 X98.253 Y119.586 E5.2640
G1 X102.902 Y120.555 E6.2117
G1 X107.625 Y121.042 E7.1594
G1 X112.375 Y121.042 E8.1071
G1 X117.098 Y120.555 E9.0548
G1 X121.750 Y119.585 E10.0032
G1 X126.147 Y118.192 E10.9236
G1 X126.412 Y118.091 E10.9802
G1 X130.623 Y116.249 E11.8974
G1 X135.984 Y113.224 E13.1258
G1 X138.317 Y113.184 E13.5915
G1 X145.763 Y117.060 E15.2666
G1 X145.991 Y122.371 E16.3275
G1 X139.849 Y126.271 E17.7794
G1 X139.685 Y126.366 E17.8172
G1 X135.513 Y128.556 E18.7576
G1 X135.341 Y128.637 E18.7955
G1 X131.003 Y130.475 E19.7357
G1 X130.825 Y130.542 E19.7737
G1 X129.600 Y130.946 E20.0310
G1 X129.600 Y132.768 E20.3947
G1 X126.905 Y135.463 E21.1552
G1 X93.095 Y135.463 E27.9025
G1 X90.400 Y132.768 E28.6630
G1 X90.400 Y130.946 E29.0267
G1 X89.175 Y130.542 E29.2841
G1 X88.997 Y130.475 E29.3220
G1 X84.659 Y128.637 E30.2622
G1 X84.487 Y128.556 E30.3001
G1 X80.315 Y126.366 E31.2405
G1 X80.151 Y126.271 E31.2783
G1 X74.009 Y122.371 E32.7302
G1 X74.237 Y117.060 E33.7911
G92 E0.0000
G1 E-10.0000 F6000
G1 Z0.900 F1000
G1 X80.231 Y114.571 F4800
G1 Z0.600 F1000
G1 E0.0000 F6000
G92 E0.0000
G1 X85.265 Y114.571 E1.0047 F325
G1 X89.137 Y116.756 E1.8919
G1 X89.370 Y116.857 E1.9425
G1 X75.840 Y116.857 E4.6425
G1 X74.783 Y117.407 E4.8803
G1 X74.708 Y119.143 E5.2270
G1 X95.016 Y119.143 E9.2795
G1 X98.110 Y120.128 E9.9276
G1 X102.816 Y121.109 E10.8869
G1 X105.913 Y121.429 E11.5083
G1 X74.610 Y121.429 E17.7552
G1 X74.582 Y122.072 E17.8837
G1 X77.169 Y123.714 E18.4951
G1 X142.831 Y123.714 E31.5987
G1 X139.558 Y125.793 E32.3724
G1 X139.415 Y125.876 E32.4056
G1 X139.178 Y126.000 E32.4590
G1 X80.822 Y126.000 E44.1044
G1 X84.738 Y128.055 E44.9868
G1 X84.888 Y128.126 E45.0201
G1 X85.265 Y128.286 E45.1018
G1 X134.735 Y128.286 E54.9739
G1 X130.795 Y129.955 E55.8278
G1 X130.639 Y130.014 E55.8611
G1 X129.040 Y130.541 E56.1970
G1 X129.040 Y130.571 E56.2032
G1 X90.960 Y130.571 E63.8025
G1 X90.960 Y132.536 E64.1946
G1 X91.281 Y132.857 E64.2851
G1 X128.719 Y132.857 E71.7563
G92 E0.0000
G1 E-10.0000 F6000
G1 Z0.900 F1000
G1 X114.087 Y121.429 F4800
G1 Z0.600 F1000
G1 E0.0000 F6000
G92 E0.0000
G1 X145.390 Y121.429 E6.2469 F325
G1 X145.292 Y119.143 E6.7034
G1 X125.000 Y119.143 E10.7529
G1 X126.331 Y118.721 E11.0316
G1 X126.624 Y118.610 E11.0941
G1 X130.630 Y116.857 E11.9668
G1 X144.160 Y116.857 E14.6668
G1 X139.769 Y114.571 E15.6547
G1 X134.735 Y114.571 E16.6594
G92 E0.0000
G1 E-10.0000 F6000
G1 Z0.900 F1000
G1 X126.905 Y92.866 F4800
G1 Z0.600 F1000
G1 E0.0000 F6000
G92 E0.0000
G1 X93.095 Y92.866 E6.7473 F325
G1 X90.400 Y90.171 E7.5078
G1 X90.400 Y88.349 E7.8715
G1 X89.175 Y87.945 E8.1289
G1 X88.998 Y87.878 E8.1667
G1 X84.659 Y86.040 E9.1071
G1 X84.487 Y85.959 E9.1449
G1 X80.315 Y83.770 E10.0852
G1 X80.151 Y83.674 E10.1232
G1 X74.009 Y79.775 E11.5750
G1 X74.237 Y74.463 E12.6359
G1 X81.679 Y70.589 E14.3101
G1 X84.004 Y70.625 E14.7742
G1 X89.586 Y73.750 E16.0508
G1 X93.725 Y75.547 E16.9513
G1 X98.253 Y76.989 E17.8996
G1 X102.902 Y77.958 E18.8473
G1 X107.626 Y78.445 E19.7950
G1 X112.378 Y78.445 E20.7433
G1 X116.961 Y77.979 E21.6628
G1 X117.242 Y77.935 E21.7195
G1 X121.747 Y76.989 E22.6382
G1 X126.147 Y75.595 E23.5592
G1 X126.412 Y75.494 E23.6158
G1 X130.623 Y73.652 E24.5330
G1 X135.984 Y70.627 E25.7614
G1 X138.317 Y70.587 E26.2272
G1 X145.763 Y74.463 E27.9023
G1 X145.991 Y79.775 E28.9632
G1 X139.849 Y83.674 E30.4150
G1 X139.685 Y83.770 E30.4529
G1 X135.513 Y85.959 E31.3932
G1 X135.341 Y86.040 E31.4311
G1 X131.003 Y87.878 E32.3714
G1 X130.825 Y87.945 E32.4093
G1 X129.600 Y88.349 E32.6666
G1 X129.600 Y90.171 E33.0304
G1 X126.905 Y92.866 E33.7909
G92 E0.0000
G1 E-10.0000 F6000
G1 Z0.900 F1000
G1 X127.265 Y91.714 F4800
G1 Z0.600 F1000
G1 E0.0000 F6000
G92 E0.0000
G1 X92.735 Y91.714 E6.8909 F325
G1 X90.960 Y89.939 E7.3918
G1 X90.960 Y89.429 E7.4938
G1 X129.040 Y89.429 E15.0930
G1 X129.040 Y87.944 E15.3894
G1 X130.638 Y87.417 E15.7252
G1 X130.795 Y87.358 E15.7586
G1 X131.303 Y87.143 E15.8687
G1 X88.697 Y87.143 E24.3713
G1 X84.888 Y85.529 E25.1967
G1 X84.738 Y85.458 E25.2300
G1 X83.593 Y84.857 E25.4880
G1 X136.407 Y84.857 E36.0276
G1 X139.414 Y83.279 E36.7054
G1 X139.558 Y83.196 E36.7386
G1 X140.541 Y82.571 E36.9710
G1 X79.458 Y82.571 E49.1607
G1 X75.859 Y80.286 E50.0117
G1 X144.141 Y80.286 E63.6381
G1 X145.417 Y79.475 E63.9399
G1 X145.354 Y78.000 E64.2345
G1 X119.659 Y78.000 E69.3624
G1 X117.343 Y78.486 E69.8346
G1 X117.033 Y78.535 E69.8971
G1 X112.406 Y79.005 E70.8253
G1 X107.597 Y79.005 E71.7850
G1 X102.816 Y78.512 E72.7442
G1 X100.358 Y78.000 E73.2452
G1 X74.646 Y78.000 E78.3763
G1 X74.744 Y75.714 E78.8329
G1 X92.703 Y75.714 E82.4169
G1 X89.337 Y74.252 E83.1494
G1 X87.866 Y73.429 E83.4858
G1 X77.438 Y73.429 E85.5669
G92 E0.0000
G1 E-10.0000 F6000
G1 Z0.900 F1000
G1 X127.307 Y75.714 F4800
G1 Z0.600 F1000
G1 E0.0000 F6000
G92 E0.0000
G1 X145.256 Y75.714 E3.5820 F325
G1 X145.217 Y74.811 E3.7625
G1 X142.562 Y73.429 E4.3598
G1 X132.159 Y73.429 E6.4359
G92 E0.0000
G1 E-10.0000 F6000
; layer 2, Z = 1.100
M106 S255
; tool H0.500 W0.800
G1 Z1.100 F1000
G1 X135.984 Y113.224 F4800
G1 E0.0000 F6000
G92 E0.0000
G1 X138.317 Y113.184 E0.3881 F650
G1 X145.763 Y117.060 E1.7840
G1 X145.991 Y122.371 E2.6681
G1 X139.849 Y126.271 E3.8780
G1 X139.685 Y126.366 E3.9095
G1 X135.513 Y128.556 E4.6931
G1 X135.341 Y128.637 E4.7247
G1 X131.003 Y130.475 E5.5083
G1 X130.825 Y130.542 E5.5399
G1 X129.600 Y130.946 E5.7543
G1 X129.600 Y132.768 E6.0574
G1 X126.905 Y135.463 E6.6912
G1 X93.095 Y135.463 E12.3139
G1 X90.400 Y132.768 E12.9477
G1 X90.400 Y130.946 E13.2508
G1 X89.175 Y130.542 E13.4652
G1 X88.997 Y130.475 E13.4968
G1 X84.659 Y128.637 E14.2804
G1 X84.487 Y128.556 E14.3120
G1 X80.315 Y126.366 E15.0955
G1 X80.151 Y126.271 E15.1271
G1 X74.009 Y122.371 E16.3370
G1 X74.237 Y117.060 E17.2211
G1 X81.682 Y113.184 E18.6169
G1 X84.016 Y113.224 E19.0050
G1 X89.387 Y116.254 E20.0307
G1 X93.727 Y118.145 E20.8179
G1 X98.253 Y119.586 E21.6078
G1 X102.902 Y120.555 E22.3975
G1 X107.625 Y121.042 E23.1872
G1 X112.375 Y121.042 E23.9770
G1 X117.098 Y120.555 E24.7667
G1 X121.750 Y119.585 E25.5570
G1 X126.147 Y118.192 E26.3240
G1 X126.412 Y118.091 E26.3712
G1 X130.623 Y116.249 E27.1356
G1 X135.984 Y113.224 E28.1592
G92 E0.0000
G1 E-10.0000 F6000
G1 Z1.400 F1000
G1 X134.735 Y114.571 F4800
G1 Z1.100 F1000
G1 E0.0000 F6000
G92 E0.0000
G1 X139.769 Y114.571 E0.8372 F650
G1 X144.160 Y116.857 E1.6604
G1 X130.630 Y116.857 E3.9105
G1 X126.624 Y118.610 E4.6377
G1 X126.331 Y118.721 E4.6898
G1 X125.000 Y119.143 E4.9220
G1 X145.292 Y119.143 E8.2966
G1 X145.390 Y121.429 E8.6771
G1 X114.087 Y121.429 E13.8828
G92 E0.0000
G1 E-10.0000 F6000
G1 Z1.400 F1000
G1 X128.719 Y132.857 F4800
G1 Z1.100 F1000
G1 E0.0000 F6000
G92 E0.0000
G1 X91.281 Y132.857 E6.2260 F650
G1 X90.960 Y132.536 E6.3015
G1 X90.960 Y130.571 E6.6282
G1 X129.040 Y130.571 E12.9610
G1 X129.040 Y130.541 E12.9661
G1 X130.639 Y130.014 E13.2460
G1 X130.795 Y129.955 E13.2738
G1 X134.735 Y128.286 E13.9853
G1 X85.265 Y128.286 E22.2121
G1 X84.888 Y128.126 E22.2802
G1 X84.738 Y128.055 E22.3080
G1 X80.822 Y126.000 E23.0433
G1 X139.178 Y126.000 E32.7478
G1 X139.415 Y125.876 E32.7923
G1 X139.558 Y125.793 E32.8199
G1 X142.831 Y123.714 E33.4647
G1 X77.169 Y123.714 E44.3844
G1 X74.582 Y122.072 E44.8939
G1 X74.610 Y121.429 E45.0010
G1 X105.913 Y121.429 E50.2067
G1 X102.816 Y121.109 E50.7246
G1 X98.110 Y120.128 E51.5239
G1 X95.016 Y119.143 E52.0640
G1 X74.708 Y119.143 E55.4411
G1 X74.783 Y117.407 E55.7300
G1 X75.840 Y116.857 E55.9282
G1 X89.370 Y116.857 E58.1782
G1 X89.137 Y116.756 E58.2204
G1 X85.265 Y114.571 E58.9597
G1 X80.231 Y114.571 E59.7970
G92 E0.0000
G1 E-10.0000 F6000
G1 Z1.400 F1000
G1 X93.095 Y92.866 F4800
G1 Z1.100 F1000
G1 E0.0000 F6000
G92 E0.0000
G1 X90.400 Y90.171 E0.6337 F650
G1 X90.400 Y88.349 E0.9368
G1 X89.175 Y87.945 E1.1513
G1 X88.998 Y87.878 E1.1829
G1 X84.659 Y86.040 E1.9665
G1 X84.487 Y85.959 E1.9980
G1 X80.315 Y83.770 E2.7816
G1 X80.151 Y83.674 E2.8132
G1 X74.009 Y79.775 E4.0231
G1 X74.237 Y74.463 E4.9071
G1 X81.679 Y70.589 E6.3024
G1 X84.004 Y70.625 E6.6891
G1 X89.586 Y73.750 E7.7529
G1 X93.725 Y75.547 E8.5033
G1 X98.253 Y76.989 E9.2936
G1 X102.902 Y77.958 E10.0833
G1 X107.626 Y78.445 E10.8731
G1 X112.378 Y78.445 E11.6634
G1 X116.961 Y77.979 E12.4296
G1 X117.242 Y77.935 E12.4768
G1 X121.747 Y76.989 E13.2424
G1 X126.147 Y75.595 E14.0099
G1 X126.412 Y75.494 E14.0571
G1 X130.623 Y73.652 E14.8214
G1 X135.984 Y70.627 E15.8451
G1 X138.317 Y70.587 E16.2332
G1 X145.763 Y74.463 E17.6291
G1 X145.991 Y79.775 E18.5132
G1 X139.849 Y83.674 E19.7231
G1 X139.685 Y83.770 E19.7547
G1 X135.513 Y85.959 E20.5383
G1 X135.341 Y86.040 E20.5698
G1 X131.003 Y87.878 E21.3534
G1 X130.825 Y87.945 E21.3850
G1 X129.600 Y88.349 E21.5994
G1 X129.600 Y90.171 E21.9026
G1 X126.905 Y92.866 E22.5363
G1 X93.095 Y92.866 E28.1590
G92 E0.0000
G1 E-10.0000 F6000
G1 Z1.400 F1000
G1 X77.438 Y73.429 F4800
G1 Z1.100 F1000
G1 E0.0000 F6000
G92 E0.0000
G1 X87.866 Y73.429 E1.7342 F650
G1 X89.337 Y74.252 E2.0146
G1 X92.703 Y75.714 E2.6250
G1 X74.744 Y75.714 E5.6117
G1 X74.646 Y78.000 E5.9921
G1 X100.358 Y78.000 E10.2681
G1 X102.816 Y78.512 E10.6855
G1 X107.597 Y79.005 E11.4849
G1 X112.406 Y79.005 E12.2847
G1 X117.033 Y78.535 E13.0581
G1 X117.343 Y78.486 E13.1103
G1 X119.659 Y78.000 E13.5038
G1 X145.354 Y78.000 E17.7770
G1 X145.417 Y79.475 E18.0225
G1 X144.141 Y80.286 E18.2739
G1 X75.859 Y80.286 E29.6293
G1 X79.458 Y82.571 E30.3385
G1 X140.541 Y82.571 E40.4966
G1 X139.558 Y83.196 E40.6903
G1 X139.414 Y83.279 E40.7179
G1 X136.407 Y84.857 E41.2827
G1 X83.593 Y84.857 E50.0658
G1 X84.738 Y85.458 E50.2807
G1 X84.888 Y85.529 E50.3085
G1 X88.697 Y87.143 E50.9963
G1 X131.303 Y87.143 E58.0818
G1 X130.795 Y87.358 E58.1736
